images/icons/icon-3.svg

<svg width="47" height="32" viewBox="0 0 47 32" fill="none" xmlns="http://www.w3.org/2000/svg">
<path d="M27.7127 6.34919C27.7146 5.56763 27.4881 4.80307 27.0617 4.15228C26.6354 3.50149 26.0284 2.99375 25.3176 2.69332C24.6068 2.39288 23.8241 2.31328 23.0688 2.46457C22.3134 2.61586 21.6192 2.99126 21.0741 3.54323C20.529 4.0952 20.1575 4.79893 20.0066 5.56533C19.8557 6.33174 19.9322 7.12635 20.2265 7.84859C20.5207 8.57082 21.0194 9.1882 21.6595 9.62258C22.2996 10.057 23.0523 10.2888 23.8222 10.2887C24.8524 10.2888 25.8406 9.87408 26.57 9.13553C27.2993 8.39698 27.7103 7.39492 27.7127 6.34919ZM23.8222 9.12511C23.2818 9.12319 22.754 8.95877 22.3056 8.6526C21.8571 8.34643 21.5081 7.91224 21.3026 7.40487C21.0971 6.89749 21.0443 6.33968 21.1509 5.80186C21.2575 5.26405 21.5186 4.77035 21.9015 4.38311C22.2843 3.99587 22.7715 3.73246 23.3017 3.62612C23.8319 3.51979 24.3813 3.57531 24.8804 3.78567C25.3795 3.99603 25.806 4.35181 26.1061 4.80806C26.4062 5.26432 26.5663 5.8006 26.5664 6.34919C26.5643 7.08641 26.2742 7.7927 25.7597 8.3131C25.2453 8.8335 24.5485 9.12552 23.8222 9.12511Z" fill="#332208"/>
<path d="M11.1733 16.1068C10.6423 16.1081 10.1235 16.2691 9.68251 16.5695C9.24156 16.8699 8.89821 17.2963 8.69585 17.7947C8.49348 18.2931 8.44119 18.8412 8.54556 19.3697C8.64994 19.8983 8.9063 20.3836 9.28227 20.7643C9.65824 21.145 10.1369 21.4041 10.6579 21.5088C11.1788 21.6135 11.7187 21.5591 12.2092 21.3525C12.6997 21.1459 13.1189 20.7964 13.4138 20.3481C13.7087 19.8997 13.8661 19.3728 13.8661 18.8337C13.8644 18.1099 13.58 17.4163 13.0752 16.9051C12.5704 16.3939 11.8864 16.1068 11.1733 16.1068ZM11.1733 20.397C10.869 20.3958 10.5718 20.303 10.3194 20.1304C10.067 19.9579 9.87054 19.7133 9.75494 19.4275C9.63934 19.1418 9.60974 18.8276 9.66987 18.5248C9.73001 18.222 9.87719 17.944 10.0928 17.726C10.3085 17.508 10.5829 17.3598 10.8815 17.3C11.1801 17.2401 11.4894 17.2715 11.7704 17.39C12.0515 17.5085 12.2917 17.7089 12.4606 17.9658C12.6296 18.2228 12.7197 18.5248 12.7197 18.8337C12.7185 19.2491 12.555 19.647 12.2651 19.9402C11.9752 20.2333 11.5825 20.3978 11.1733 20.3974V20.397Z" fill="#332208"/>
<path d="M28.1848 21.1765C27.7297 21.1776 27.2851 21.3155 26.9071 21.5729C26.5292 21.8304 26.2349 22.1957 26.0615 22.6228C25.888 23.0499 25.8431 23.5196 25.9326 23.9726C26.022 24.4256 26.2417 24.8415 26.5638 25.1678C26.886 25.4941 27.2962 25.7162 27.7427 25.8059C28.1891 25.8956 28.6518 25.8491 29.0722 25.672C29.4925 25.495 29.8518 25.1955 30.1045 24.8113C30.3573 24.4271 30.4922 23.9755 30.4922 23.5135C30.4908 22.8932 30.2471 22.2988 29.8145 21.8607C29.382 21.4226 28.7958 21.1765 28.1848 21.1765ZM28.1848 24.6868C27.9564 24.6858 27.7334 24.6161 27.544 24.4865C27.3546 24.357 27.2072 24.1734 27.1206 23.9589C27.0339 23.7444 27.0117 23.5086 27.0569 23.2814C27.1021 23.0541 27.2126 22.8456 27.3744 22.682C27.5363 22.5184 27.7422 22.4072 27.9663 22.3623C28.1904 22.3175 28.4225 22.341 28.6335 22.43C28.8444 22.5189 29.0246 22.6693 29.1514 22.8622C29.2782 23.055 29.3458 23.2816 29.3458 23.5135C29.3448 23.8252 29.2219 24.1238 29.0043 24.3438C28.7866 24.5637 28.4919 24.687 28.1848 24.6867V24.6868Z" fill="#332208"/>
<path d="M40.4419 13.2186C40.897 13.2176 41.3416 13.0797 41.7196 12.8223C42.0975 12.5648 42.3918 12.1995 42.5652 11.7724C42.7387 11.3453 42.7835 10.8756 42.6941 10.4226C42.6047 9.96961 42.385 9.5537 42.0629 9.2274C41.7407 8.90109 41.3305 8.67904 40.884 8.58929C40.4376 8.49954 39.9749 8.54613 39.5545 8.72316C39.1342 8.90019 38.7749 9.19972 38.5222 9.58392C38.2694 9.96811 38.1345 10.4197 38.1345 10.8817C38.1359 11.502 38.3796 12.0964 38.8122 12.5345C39.2447 12.9726 39.8309 13.2187 40.4419 13.2186ZM40.4419 9.70839C40.6703 9.70942 40.8933 9.77911 41.0827 9.90867C41.2721 10.0382 41.4194 10.2218 41.5061 10.4363C41.5928 10.6508 41.615 10.8865 41.5698 11.1138C41.5246 11.3411 41.4141 11.5496 41.2523 11.7132C41.0904 11.8768 40.8845 11.988 40.6604 12.0328C40.4363 12.0777 40.2041 12.0542 39.9932 11.9652C39.7823 11.8762 39.6021 11.7259 39.4753 11.533C39.3485 11.3402 39.2809 11.1135 39.2809 10.8817C39.2819 10.5699 39.4047 10.2713 39.6224 10.0514C39.84 9.83139 40.1348 9.70805 40.4419 9.70839Z" fill="#332208"/>
<path d="M42.1129 15.4714L43.6246 13.4262C44.2069 12.6544 44.4965 11.696 44.4406 10.7256C44.3045 8.60818 42.596 6.94934 40.5509 6.94934C38.5058 6.94934 36.7976 8.60818 36.6612 10.7251C36.6316 11.2058 36.6905 11.6878 36.8349 12.1466L27.381 12.3226L28.8401 10.3476C29.7713 9.11485 30.2348 7.58333 30.1461 6.0325C30.0457 4.44611 29.3814 2.95066 28.2765 1.82407C27.7073 1.2458 27.0314 0.787061 26.2874 0.474078C25.5434 0.161095 24.746 0 23.9406 0C23.1353 0 22.3378 0.161095 21.5939 0.474078C20.8499 0.787061 20.174 1.2458 19.6047 1.82407C18.5001 2.95039 17.8357 4.44548 17.7352 6.03153C17.6378 7.5104 18.1 9.04085 19.0407 10.3466L20.3029 12.0542L6.86847 12.144C6.74957 12.1448 6.63385 12.1831 6.53735 12.2537C6.44085 12.3242 6.36835 12.4234 6.32988 12.5376L0.0308205 31.23C0.00132091 31.3176 -0.00716555 31.411 0.00606599 31.5026C0.0192975 31.5942 0.0538652 31.6813 0.106898 31.7566C0.15993 31.8319 0.229897 31.8932 0.310986 31.9356C0.392076 31.9779 0.481948 32 0.573137 32H46.4269C46.5168 32 46.6054 31.9785 46.6857 31.9373C46.7659 31.8961 46.8354 31.8363 46.8887 31.7627C46.9419 31.6892 46.9774 31.604 46.9922 31.5139C47.007 31.4239 47.0007 31.3316 46.9739 31.2445L42.1129 15.4714ZM37.8046 10.8014C37.8895 9.47993 38.9397 8.11296 40.5504 8.11296C42.1611 8.11296 43.2113 9.48022 43.2963 10.803C43.3339 11.4953 43.125 12.1783 42.7077 12.7272L40.5504 15.646L38.3973 12.733C37.9831 12.1794 37.7735 11.4958 37.805 10.8014H37.8046ZM37.3899 13.2996C37.4185 13.3419 37.4472 13.384 37.4768 13.4257L40.0925 16.965C40.1459 17.0373 40.2151 17.0959 40.2947 17.1363C40.3743 17.1767 40.462 17.1978 40.551 17.1978C40.64 17.1978 40.7277 17.1767 40.8073 17.1363C40.8869 17.0959 40.9562 17.0373 41.0095 16.965L41.2655 16.6188L41.9171 18.7334L33.03 18.7355L32.3861 13.3934L37.3899 13.2996ZM19.9623 9.65447C19.1845 8.57492 18.7999 7.31588 18.8795 6.10862C18.9618 4.8035 19.5081 3.57309 20.4168 2.64607C20.8796 2.1762 21.429 1.80348 22.0337 1.54918C22.6384 1.29488 23.2865 1.164 23.941 1.164C24.5955 1.164 25.2437 1.29488 25.8484 1.54918C26.453 1.80348 27.0025 2.1762 27.4652 2.64607C28.3745 3.57349 28.921 4.80452 29.0032 6.11027C29.0733 7.383 28.6902 8.63888 27.9239 9.64875L23.9411 15.0374L19.9623 9.65447ZM1.375 30.8364L4.35263 22.0001L7.74275 21.9896L10.848 26.1909C10.9014 26.2632 10.9706 26.3218 11.0502 26.3622C11.1298 26.4026 11.2176 26.4236 11.3065 26.4236C11.3955 26.4236 11.4833 26.4026 11.5629 26.3622C11.6425 26.3218 11.7117 26.2632 11.7651 26.1909L14.2393 22.843L14.2697 30.8364H1.375ZM14.045 21.1673L11.3064 24.8722L8.57213 21.173C8.03459 20.4263 7.76854 19.5585 7.82338 18.7275C7.93094 17.0529 9.26328 15.3207 11.3064 15.3207C13.3496 15.3207 14.6819 17.0529 14.7897 18.7292C14.8376 19.6062 14.5733 20.4715 14.045 21.1673ZM23.0786 24.7371C23.0245 24.7912 22.9815 24.8557 22.9522 24.9269C22.9229 24.9981 22.9078 25.0745 22.9078 25.1516L22.9109 30.8364H15.4161L15.3801 21.1988C15.7959 20.4191 15.9878 19.5367 15.9341 18.6518C15.7722 16.1315 13.7398 14.1571 11.3071 14.1571C8.87448 14.1571 6.84211 16.1315 6.68019 18.6508C6.63663 19.3974 6.76896 20.1438 7.06622 20.8281L4.74583 20.8352L7.28335 13.3049L21.1597 13.2125L23.4832 16.3561C23.5366 16.4283 23.6058 16.487 23.6854 16.5274C23.765 16.5678 23.8527 16.5888 23.9417 16.5888C24.0307 16.5888 24.1185 16.5678 24.1981 16.5274C24.2776 16.487 24.3469 16.4283 24.4003 16.3561L26.5092 13.5022L31.2339 13.4142L31.9538 19.3875C31.9708 19.5285 32.0381 19.6583 32.1429 19.7525C32.2477 19.8467 32.3828 19.8986 32.5228 19.8986L42.2757 19.8964L43.7139 24.5632L32.0704 24.5833C32.1722 24.1834 32.2105 23.7695 32.1837 23.3574C32.0476 21.2398 30.339 19.581 28.2939 19.581C26.2488 19.581 24.5402 21.2398 24.4042 23.3564C24.3783 23.7699 24.4184 24.1849 24.523 24.5853L23.4896 24.5697C23.4135 24.5676 23.3377 24.5814 23.267 24.6102C23.1963 24.6389 23.1322 24.6821 23.0786 24.7371ZM30.451 25.3589L28.2938 28.2777L26.1408 25.3648C25.7264 24.8113 25.5166 24.1278 25.5479 23.4333C25.6329 22.1117 26.6832 20.7449 28.2938 20.7449C29.9044 20.7449 30.9548 22.1121 31.0398 23.435C31.0772 24.1272 30.8682 24.8101 30.451 25.359V25.3589ZM24.0572 30.8364L24.0545 25.7419L25.0205 25.7565C25.0826 25.8586 25.149 25.9588 25.2196 26.0571L27.8353 29.5964C27.8887 29.6687 27.9579 29.7273 28.0375 29.7677C28.1171 29.8081 28.2048 29.8292 28.2938 29.8292C28.3828 29.8292 28.4706 29.8081 28.5502 29.7677C28.6297 29.7273 28.699 29.6687 28.7524 29.5964L31.3676 26.0582C31.4424 25.9573 31.5122 25.8539 31.5771 25.7479L44.0723 25.7263L45.647 30.8364H24.0572Z" fill="#332208"/>
</svg>

<svg width="47" height="32" fill="none" xmlns="http://www.w3.org/2000/svg"><path d="M27.713 6.35a3.992 3.992 0 00-.651-2.198 3.904 3.904 0 00-1.744-1.459 3.838 3.838 0 00-2.25-.228 3.873 3.873 0 00-1.994 1.078 3.968 3.968 0 00-1.067 2.022 4.004 4.004 0 00.22 2.284 3.93 3.93 0 001.433 1.774 3.85 3.85 0 004.91-.487 3.98 3.98 0 001.143-2.787zm-3.89 2.775a2.706 2.706 0 01-1.517-.472 2.767 2.767 0 01-1.003-1.248 2.815 2.815 0 01-.152-1.603 2.788 2.788 0 01.75-1.419 2.708 2.708 0 012.98-.597c.498.21.925.566 1.225 1.022a2.805 2.805 0 01-.346 3.505 2.722 2.722 0 01-1.938.812zm-12.65 6.982a2.659 2.659 0 00-1.49.463c-.441.3-.785.726-.987 1.225a2.765 2.765 0 00-.15 1.575 2.74 2.74 0 00.736 1.394 2.652 2.652 0 002.927.588c.49-.206.91-.556 1.205-1.004a2.757 2.757 0 00-.339-3.443 2.673 2.673 0 00-1.902-.798zm0 4.29a1.523 1.523 0 01-.854-.267 1.559 1.559 0 01-.564-.703 1.585 1.585 0 01.338-1.701 1.518 1.518 0 011.678-.336c.28.119.52.319.69.576a1.58 1.58 0 01-.196 1.974c-.29.293-.683.458-1.092.457zm17.012.78a2.28 2.28 0 00-1.278.396 2.33 2.33 0 00-.846 1.05 2.369 2.369 0 00.503 2.545 2.271 2.271 0 002.509.504 2.31 2.31 0 001.032-.86 2.362 2.362 0 00-.29-2.951 2.29 2.29 0 00-1.63-.684zm0 3.51a1.143 1.143 0 01-.641-.2 1.169 1.169 0 01-.423-.528 1.19 1.19 0 01.253-1.277 1.14 1.14 0 011.26-.252c.21.089.39.24.517.432a1.185 1.185 0 01-.147 1.482 1.15 1.15 0 01-.82.343zm12.257-11.468c.455-.001.9-.14 1.278-.397a2.33 2.33 0 00.845-1.05 2.37 2.37 0 00-.502-2.545 2.27 2.27 0 00-2.508-.504 2.31 2.31 0 00-1.033.86 2.362 2.362 0 00.29 2.951 2.29 2.29 0 001.63.685zm0-3.51c.228 0 .451.07.64.2.19.13.337.313.424.527a1.19 1.19 0 01-.254 1.277 1.15 1.15 0 01-1.259.252 1.16 1.16 0 01-.518-.432 1.186 1.186 0 01.147-1.482 1.15 1.15 0 01.82-.343z" fill="#332208"/><path d="M42.113 15.471l1.512-2.045a4.1 4.1 0 00.816-2.7c-.137-2.118-1.845-3.777-3.89-3.777s-3.753 1.66-3.89 3.776c-.03.48.03.963.174 1.422l-9.454.176 1.46-1.975a6.542 6.542 0 001.305-4.316 6.606 6.606 0 00-1.87-4.208 6.124 6.124 0 00-1.989-1.35 6.05 6.05 0 00-4.693 0 6.125 6.125 0 00-1.99 1.35 6.606 6.606 0 00-1.869 4.208c-.097 1.478.365 3.009 1.306 4.315l1.262 1.707-13.435.09a.581.581 0 00-.539.394L.032 31.23a.59.59 0 00.28.706.567.567 0 00.262.064h45.854a.567.567 0 00.462-.237.586.586 0 00.085-.519l-4.861-15.773zm-4.308-4.67c.084-1.321 1.135-2.688 2.745-2.688 1.611 0 2.661 1.367 2.746 2.69a2.92 2.92 0 01-.588 1.924l-2.158 2.919-2.153-2.913a2.999 2.999 0 01-.592-1.932zM37.39 13.3l.087.126 2.616 3.539a.575.575 0 00.458.233.566.566 0 00.459-.233l.256-.346.651 2.114-8.887.002-.644-5.342 5.004-.093zM19.962 9.654c-.777-1.08-1.162-2.338-1.082-3.545a5.435 5.435 0 011.537-3.463 4.98 4.98 0 011.617-1.097 4.919 4.919 0 013.814 0 4.98 4.98 0 011.617 1.097 5.436 5.436 0 011.538 3.464 5.368 5.368 0 01-1.08 3.539l-3.982 5.388-3.979-5.383zM1.375 30.836L4.353 22l3.39-.01 3.105 4.2a.575.575 0 00.458.234.566.566 0 00.46-.233l2.473-3.348.03 7.993H1.376zm12.67-9.669l-2.739 3.705-2.734-3.699c-.537-.747-.803-1.614-.749-2.445.108-1.675 1.44-3.407 3.483-3.407 2.044 0 3.376 1.732 3.484 3.408a3.7 3.7 0 01-.745 2.438zm9.034 3.57a.581.581 0 00-.171.415l.003 5.684h-7.495L15.38 21.2c.416-.78.608-1.662.554-2.547-.162-2.52-2.194-4.495-4.627-4.495s-4.465 1.974-4.627 4.494a4.77 4.77 0 00.386 2.177l-2.32.007 2.537-7.53 13.877-.092 2.323 3.143a.576.576 0 00.459.233.566.566 0 00.458-.233l2.11-2.854 4.724-.088.72 5.973a.586.586 0 00.189.366.57.57 0 00.38.146l9.753-.003 1.438 4.667-11.644.02c.102-.4.14-.813.114-1.226-.136-2.117-1.845-3.776-3.89-3.776s-3.754 1.659-3.89 3.775c-.026.414.014.829.119 1.23l-1.033-.016a.55.55 0 00-.411.167zm7.372.622l-2.157 2.919-2.153-2.913a2.999 2.999 0 01-.593-1.932c.085-1.321 1.135-2.688 2.746-2.688 1.61 0 2.66 1.367 2.746 2.69a2.92 2.92 0 01-.589 1.924zm-6.394 5.477l-.002-5.094.965.014c.063.103.129.203.2.301l2.615 3.54a.575.575 0 00.459.232.566.566 0 00.458-.233l2.616-3.538c.074-.1.144-.204.21-.31l12.494-.022 1.575 5.11h-21.59z" fill="#332208"/></svg>
